X:1
T:Farewell to Grog
M:2/4
L:1/8
K:G
 D| GD B,D| GG GF/2-G/2| AA Ad| B2 G B/2A/2| GD B, B,/2D/2| GG G F/2G/2|\
 AA Ad| B2 G z| B3/2 B/2 Bd| d/2c/2 c/2B/2 c2| AA Ac| c/2B/2 B/2A/2 B2|\
 G3/2 G/2 GB| B/2A/2 A/2B/2 c3/2 A/2| GF EF| G2 G||
